!!!OTL: ES RITT EIN RITTER WOL DURCH DAS RIED
!!!ARE: Europa, Mitteleuropa, Deutschland, Heidelberg
!!!SCT: E0042
!!!YEM: Copyright 1995, estate of Helmut Schaffrath.
**kern
*ICvox
*Ivox
*M3/2
*k[f#]
*G:
{4g
=1
4g
4a
2b
2a
=2
4b
8cc
8b
2a
4r}
{8b
8a
=3
4g
8g
8f#
2g
2b
=4
4a
8b
8a
2g
4r}
{4a
=5
4f#
4e
4f#
4d
4e
4f#
=6
2g
8a
8b
2a}
{4b
=7
2e
4e
4d
4g
4g
=8
2.b
2g}
==
!!!AGN: erzaehlendes Volks - Lied, Ritter -, Raeuber - Sage, Ballade ?
!!!ONB: ESAC (Essen Associative Code) Database: ERK1
!!!AMT: simple triple
!!!AIN: vox
!!!EED: Helmut Schaffrath
!!!EEV: 1.0
*-
